X:151
T:Jackson's Bottle of Brandy
C:Joe Buchanan's Scottish Tome - Page 258.2
I:258 2
Z:Carl Allison
R:Jig
L:1/8
M:6/8
K:G
G2 e dBG | ABG dBG | G2 e dBG | A2 A dBG | G2 e dBG | BAB def | gfe dBG | AGA BGE :|
gbg faf | ege def | gfg aga | bab afd | gbg faf | ege def | gfe dBG | AGA BGE :|

